src/assets/img/quotes.svg

<svg width="209" height="187" viewBox="0 0 209 187" fill="none" xmlns="http://www.w3.org/2000/svg">
<path d="M58.1338 122.691C67.8173 122.691 75.3489 125.65 80.7286 131.567C86.6463 137.485 89.6051 145.017 89.6051 154.162C89.6051 175.681 77.2318 186.44 52.4851 186.44C36.346 186.44 23.7036 180.523 14.5581 168.687C5.4126 156.314 0.839844 138.83 0.839844 116.235C0.839844 94.7162 5.68159 74.8112 15.3651 56.5202C25.0486 37.6912 39.3048 19.1312 58.1338 0.840198C58.6718 0.302201 59.4787 0.0332031 60.5547 0.0332031C62.1686 0.0332031 63.5135 0.840166 64.5894 2.45409C65.6654 4.06802 65.6654 5.41294 64.5894 6.48887C38.2289 33.3874 25.0486 65.1278 25.0486 101.71C25.0486 116.773 27.7384 127.801 33.1181 134.795C37.9599 126.725 46.2984 122.691 58.1338 122.691ZM176.756 122.691C186.44 122.691 193.972 125.65 199.351 131.567C205.269 137.485 208.228 145.017 208.228 154.162C208.228 175.681 195.854 186.44 171.108 186.44C154.969 186.44 142.326 180.523 133.181 168.687C124.035 156.314 119.463 138.83 119.463 116.235C119.463 94.7162 124.304 74.8112 133.988 56.5202C143.671 37.6912 157.927 19.1312 176.756 0.840198C177.294 0.302201 178.101 0.0332031 179.177 0.0332031C180.791 0.0332031 182.136 0.840166 183.212 2.45409C184.288 4.06802 184.288 5.41294 183.212 6.48887C156.852 33.3874 143.671 65.1278 143.671 101.71C143.671 116.773 146.361 127.801 151.741 134.795C156.583 126.725 164.921 122.691 176.756 122.691Z" fill="#E3E3E3"/>
</svg>

<svg xmlns="http://www.w3.org/2000/svg" fill="none" viewBox="0 0 209 187"><path fill="#E3E3E3" d="M58.134 122.691c9.683 0 17.215 2.959 22.595 8.876 5.917 5.918 8.876 13.45 8.876 22.595 0 21.519-12.373 32.278-37.12 32.278-16.139 0-28.781-5.917-37.927-17.753C5.413 156.314.84 138.83.84 116.235c0-21.519 4.842-41.424 14.525-59.715C25.05 37.691 39.305 19.131 58.134.84c.538-.538 1.345-.807 2.42-.807 1.615 0 2.96.807 4.035 2.421 1.076 1.614 1.076 2.959 0 4.035-26.36 26.898-39.54 58.639-39.54 95.221 0 15.063 2.69 26.091 8.07 33.085 4.84-8.07 13.18-12.104 25.015-12.104zm118.622 0c9.684 0 17.216 2.959 22.595 8.876 5.918 5.918 8.877 13.45 8.877 22.595 0 21.519-12.374 32.278-37.12 32.278-16.139 0-28.782-5.917-37.927-17.753-9.146-12.373-13.718-29.857-13.718-52.452 0-21.519 4.841-41.424 14.525-59.715 9.683-18.829 23.939-37.389 42.768-55.68.538-.538 1.345-.807 2.421-.807 1.614 0 2.959.807 4.035 2.421 1.076 1.614 1.076 2.959 0 4.035-26.36 26.898-39.541 58.639-39.541 95.221 0 15.063 2.69 26.091 8.07 33.085 4.842-8.07 13.18-12.104 25.015-12.104z"/></svg>
